!!!COM:	la Rue, Pierre de
!!!CDT:	~1452///-1518/11/20
!!!OPR:	Missa Inviolata
!!!ONM:	4
!!!OTL:	Sanctus
!!!AGN:	Mass; Sanctus
!!!SCT:	Rue1017d
!!!SCA:	Rue1017d
!!!voices:	4
**kern	**kern	**kern	**kern
*staff4	*staff3	*staff2	*staff1
*Ivox	*Ivox	*Ivox	*Ivox
*I"Bassus	*I"Tenor	*I"Contra	*I"Discantus
*I'B	*I'T	*I'C	*I'D
*>[A,B,C,D,C]	*>[A,B,C,D,C]	*>[A,B,C,D,C]	*>[A,B,C,D,C]
*>A	*>A	*>A	*>A
*clefF4	*clefGv2	*clefG2	*clefG2
*k[]	*k[]	*k[]	*k[]
*M2/1	*M2/1	*M2/1	*M2/1
*met(C)	*met(C)	*met(C)	*met(C)
!!section: Sanctus
!!!OMD: Sanctus
=1-	=1-	=1-	=1-
1r	0r	2.c/	0r
.	.	4d/	.
[1c	.	2e/	.
.	.	2A/	.
=2	=2	=2	=2
2c\]	0r	2e/	0r
2d\	.	2f/	.
1e	.	2g/	.
.	.	4a/	.
.	.	4g/	.
=3	=3	=3	=3
1.A	[0c	1.a	1.cc
2B\	.	4g/	2dd\
.	.	4f/	.
=4	=4	=4	=4
1c	0c]	1e	1ee
[1F	.	[1f	[1a
=5	=5	=5	=5
2F\]	1c	2f/]	2a/]
2G\	.	1.e	2b\
1A	1c	.	1cc
=6	=6	=6	=6
0D	[0d	2d/	2.f/
.	.	2.f/	.
.	.	.	4g/
.	.	.	2a/
.	.	4g/	.
.	.	2a/	2d/
=7	=7	=7	=7
0r	0d]	2d/	2a/
.	.	1g	2.b\
.	.	.	4cc\
.	.	2f/	2dd\
=8	=8	=8	=8
2.c\	0e	1.g	1g
4d\	.	.	.
2e\	.	.	2r
[2A\	.	2e/	[2cc\
=9	=9	=9	=9
4A\]	1r	2f/	4cc\]
4B\	.	.	4dd\
2c\	.	2e/	2ee\
2.F\	[1f	[1a	2a/
.	.	.	[2ff\
4G\	.	.	.
=10	=10	=10	=10
2A\	1f]	0a_	2ff\]
2.D\	.	.	1ff
.	1f	.	.
4E\	.	.	.
4F\	.	.	4ee\
4G\	.	.	4dd\
=11	=11	=11	=11
1A	2.e\	1a]	1cc
.	4d\	.	.
2r	1e	2r	2r
2A\	.	2a/	2cc\
=12	=12	=12	=12
2.B\	0d	2g/	2.dd\
.	.	2.f/	.
4c\	.	.	4cc\
2d\	.	.	2a/
.	.	4d/	.
[2G\	.	[2g/	[2b\
=13	=13	=13	=13
4G\]	1d	2g/]	4b\]
4A\	.	.	4cc\
2B\	.	2f/	2dd\
2.E\	1e	[1g	2.g/
4F\	.	.	4a/
=14	=14	=14	=14
2G\	2d\	0g]	2b\
2.C/	2c\	.	2.cc\
.	1e	.	.
4D\	.	.	4b\
4E\	.	.	4g/
4F\	.	.	4a/
=15	=15	=15	=15
2G\	2d\	2r	2b\
1A	2c\	2.c/	1cc
.	1e	.	.
.	.	4d/	.
[2G\	.	4e/	[2b\
.	.	4f/	.
=16	=16	=16	=16
2G\]	2d\	1g	2b\]
4F\	2c\	.	4a/
4E\	.	.	4g/
2D\	1d	2f/	2a/
2G\	.	[2g/	2g/
=17	=17	=17	=17
1C	1e	2g/]	2e/
.	.	4f/	2.cc\
.	.	4e/	.
1r	1r	2f/	.
.	.	.	4dd\
.	.	2g/	4ee\
.	.	.	4cc\
=18	=18	=18	=18
0r	0r	4a/	2ff\
.	.	4g/	.
.	.	4f/	1ee
.	.	4e/	.
.	.	2f/	.
.	.	2g/	2dd\
=19	=19	=19	=19
2r	0e	2.c/	2ee\
1c	.	.	2.gg\
.	.	4d/	.
.	.	4e/	.
.	.	4f/	4ff\
2B\	.	[2g/	4ee\
.	.	.	4dd\
=20	=20	=20	=20
1A	1c	2g/]	2ee\
.	.	2f/	4dd\
.	.	.	4cc\
[1G	2.d\	[1g	[1b
.	8c\L	.	.
.	8d\J	.	.
=21	=21	=21	=21
1G]	2e\	2g/]	1b]
.	2.g\	2.e/	.
2r	.	.	1r
.	4f\	4f/	.
[2C/	4e\	[2g/	.
.	4d\	.	.
=22	=22	=22	=22
4C/]	2e\	2g/]	1r
4D\	.	.	.
4E\	4d\	4f/	.
4F\	4c\	4e/	.
1G	1B	1d	2r
.	.	.	2b\
=23	=23	=23	=23
2A\	0r	1c	2cc\
2.c\	.	.	2.ee\
.	.	2r	.
4B\	.	.	4dd\
4A\	.	[2c/	4cc\
4G\	.	.	4b\
=24	=24	=24	=24
2A\	2r	4c/]	2cc\
.	.	4d/	.
4G\	2d\	4e/	4b\
4F\	.	4f/	4a/
[1E	2e\	2g/	2g/
.	[2g\	[2e/	[2ee\
=25	=25	=25	=25
1E]	4g\]	4e/]	4ee\]
.	4f\	4f/	4dd\
.	4e\	1g	2b\
.	4d\	.	.
1r	2e\	.	2cc\
.	4d\	4f/	4b\
.	4c\	4e/	4a/
=26	=26	=26	=26
2r	1B	1d	1g
2G\	.	.	.
2A\	1r	2c/	1r
[2c\	.	[2e/	.
=27	=27	=27	=27
4c\]	1r	4e/]	1r
4B\	.	4d/	.
4A\	.	4c/	.
4G\	.	4B/	.
2A\	2r	2c/	2r
4G\	2d\	4B/	2a/
4F\	.	4A/	.
=28	=28	=28	=28
1E	2e\	2B/	4g/
.	.	.	4a/
.	4d\	2G/	4b\
.	4c\	.	4cc\
1r	2B\	1g	2dd\
.	2c\	.	[2cc\
=29	=29	=29	=29
2r	1d	2r	2cc\]
2G\	.	2g/	2b\
2A\	1c	2e/	2cc\
4G\	.	[2g/	[2ee\
4F\	.	.	.
=30	=30	=30	=30
2E\	1r	2g/]	2ee\]
2F\	.	4f/	4dd\
.	.	4e/	4cc\
1G	2r	1d	2b\
.	2d\	.	2gg\
=31	=31	=31	=31
1C	2e\	1c	2ff\
.	1g	.	1ee
2c\	.	1r	.
[2c\	4f\	.	4dd\
.	4e\	.	4cc\
=32	=32	=32	=32
2c\]	1d	0r	1ff
2B\	.	.	.
4c\	2c\	.	4ee\
4B\	.	.	4dd\
4A\	[2g\	.	4cc\
4G\	.	.	4b\
=33	=33	=33	=33
1A	2g\]	1c	1cc
.	2f\	.	.
1G	4g\	2d/	1b
.	4f\	.	.
.	4e\	2B/	.
.	4d\	.	.
=34	=34	=34	=34
2r	2e\	2c/	2r
1c	2c\	2e/	2ee\
.	1d	1d	2ff\
2B\	.	.	2dd\
=35	=35	=35	=35
4c\	2r	1c	1ee
4B\	.	.	.
4A\	2.g\	.	.
4G\	.	.	.
2.A\	.	2.c/	2.cc\
.	4f\	.	.
.	2f\	.	.
4B\	.	8B/L	4dd\
.	.	8c/J	.
=36	=36	=36	=36
2G\	4g\	2d/	2b\
.	4f\	.	.
1A	4e\	2c/	1cc
.	4d\	.	.
.	2e\	1A	.
4G\	2f\	.	4b\
4F\	.	.	4a/
=37	=37	=37	=37
2G\	2d\	2r	2b\
2E\	1e	2B/	2g/
1A	.	4c/	2a/
.	.	4d/	.
.	4d\	4e/	[2cc\
.	4c\	4f/	.
=38	=38	=38	=38
[0G	2d\	2g/	4cc\]
.	.	.	4b\
.	2B\	2d/	1dd
.	1e	2g/	.
.	.	2G/	[2cc\
=39	=39	=39	=39
0G]	0d	2.g/	2cc\]
.	.	.	4b\
.	.	4f/	4a/
.	.	4g/	2.b\
.	.	4f/	.
.	.	4e/	.
.	.	4d/	4a/
=40	=40	=40	=40
0Cl	0cl	0el	0ccl
!!LO:LB:i:g=z
=41||	=41||	=41||	=41||
*>B	*>B	*>B	*>B
*clefF4	*clefGv2	*clefG2	*clefG2
*k[]	*k[]	*k[]	*k[]
*M2/1	*M2/1	*M2/1	*M2/1
*met(C)	*met(C)	*met(C)	*met(C)
!!section: Pleni sunt celi
!!!OMD: Pleni sunt celi
1r	0c	0r	0r
2.c\	.	.	.
4B\	.	.	.
=42	=42	=42	=42
2A\	1c	0r	0r
4G\	.	.	.
4F\	.	.	.
1E	1e	.	.
=43	=43	=43	=43
0D	2.f\	0r	0r
.	4e\	.	.
.	2d\	.	.
.	4c\	.	.
.	4B\	.	.
=44	=44	=44	=44
2r	1A	0r	0r
2D\	.	.	.
2E\	[1G	.	.
[2G\	.	.	.
=45	=45	=45	=45
4G\]	1G]	0r	0r
4A\	.	.	.
4B\	.	.	.
4c\	.	.	.
2d\	2r	.	.
2B\	2G/	.	.
=46	=46	=46	=46
4c\	2A/	0r	0r
4B\	.	.	.
4A\	2.c\	.	.
4G\	.	.	.
1A	.	.	.
.	4d\	.	.
.	4e\	.	.
.	4f\	.	.
=47	=47	=47	=47
2G\	2g\	0r	0r
2.A\	2e\	.	.
.	4f\	.	.
4G\	4e\	.	.
[2c\	4d\	.	.
.	4c\	.	.
=48	=48	=48	=48
2c\]	1d	0r	0r
2B\	.	.	.
[1c	1c	.	.
=49	=49	=49	=49
1c]	2r	0r	0r
.	2e\	.	.
2r	1e	.	.
2c\	.	.	.
=50	=50	=50	=50
2d\	1f	0r	0r
2B\	.	.	.
2c\	1e	.	.
4B\	.	.	.
4A\	.	.	.
=51	=51	=51	=51
2G\	2r	0r	0r
2c\	2e\	.	.
2d\	2f\	.	.
2B\	2d\	.	.
=52	=52	=52	=52
2c\	2e\	0r	0r
4B\	4d\	.	.
4A\	4c\	.	.
4G\	2B\	.	.
4A\	.	.	.
4B\	2e\	.	.
4c\	.	.	.
=53	=53	=53	=53
2d\	2f\	0r	0r
2B\	2d\	.	.
2c\	2e\	.	.
[2A\	4d\	.	.
.	4c\	.	.
=54	=54	=54	=54
2A\]	4B\	0r	0r
.	4A/	.	.
2G\	2B\	.	.
2F\	2.A/	.	.
[2A\	.	.	.
.	4B\	.	.
=55	=55	=55	=55
2A\]	4c\	0r	0r
.	4d\	.	.
4G\	4e\	.	.
4F\	4f\	.	.
4G\	2e\	.	.
4F\	.	.	.
4E\	[2d\	.	.
4D\	.	.	.
=56	=56	=56	=56
1E	2d\]	0r	0r
.	2c#i\	.	.
2r	[1d	.	.
2D\	.	.	.
=57	=57	=57	=57
1G	1d]	0r	0r
2F\	2r	.	.
[2E\	[2g\	.	.
=58	=58	=58	=58
4E\]	2g\]	0r	0r
4C/	.	.	.
2D\	2f\	.	.
2E\	2.e\	.	.
[2F\	.	.	.
.	4c\	.	.
=59	=59	=59	=59
2F\]	2d\	0r	0r
2.E\	2e\	.	.
.	2c\	.	.
4C/	.	.	.
2D\	[2f\	.	.
=60	=60	=60	=60
1E	2f\]	0r	0r
.	2.e\	.	.
1F	.	.	.
.	4c\	.	.
.	2d\	.	.
=61	=61	=61	=61
1E	2e\	0r	0r
.	1c	.	.
1A	.	.	.
.	[2f\	.	.
=62	=62	=62	=62
2F\	4f\]	0r	0r
.	4e\	.	.
2.B-i\	2.d\	.	.
4A\	4c\	.	.
4G\	4B\	.	.
4F\	4A/	.	.
=63	=63	=63	=63
4G\	2G/	0r	0r
4F\	.	.	.
4E\	1g	.	.
4D\	.	.	.
2C/	.	.	.
[2c\	2e\	.	.
=64	=64	=64	=64
2c\]	2c\	0r	0r
2A\	2f\	.	.
2F\	2d\	.	.
2G\	[2e\	.	.
=65	=65	=65	=65
1A	2e\]	0r	0r
.	4d\	.	.
.	4c\	.	.
[1G	4B\	.	.
.	4c\	.	.
.	4d\	.	.
.	4e\	.	.
=66	=66	=66	=66
1G]	2d\	0r	0r
.	2G/	.	.
4E\	2r	.	.
4F\	.	.	.
4G\	[2B\	.	.
4A\	.	.	.
=67	=67	=67	=67
2.G\	4B\]	0r	0r
.	4c\	.	.
.	4d\	.	.
4C/	4e\	.	.
1G	2d\	.	.
.	2G/	.	.
=68	=68	=68	=68
4E\	4c\	0r	0r
4F\	4d\	.	.
4G\	4e\	.	.
4A\	4f\	.	.
2G\	2e\	.	.
2C/	4d\	.	.
.	4c\	.	.
=69	=69	=69	=69
4E\	4B\	0r	0r
4F\	4A/	.	.
4G\	4B\	.	.
4A\	4c\	.	.
2G\	4d\	.	.
.	4G/	.	.
4F\	[2c\	.	.
4E\	.	.	.
=70	=70	=70	=70
1D	2c\]	0r	0r
.	2B\	.	.
1Cl	1cl	.	.
!!LO:LB:i:g=z
=71||	=71||	=71||	=71||
*>C	*>C	*>C	*>C
*clefF4	*clefGv2	*clefG2	*clefG2
*k[]	*k[]	*k[]	*k[]
*M2/1	*M2/1	*M2/1	*M2/1
*met(C)	*met(C)	*met(C)	*met(C)
!!section: Osanna
!!!OMD: Osanna
1r	0c	0g	0cc
2.c\	.	.	.
4B\	.	.	.
=72	=72	=72	=72
2A\	1e	1.a	1cc
2G\	.	.	.
2F\	1f	.	1dd
4E\	.	4g/	.
4D\	.	4f/	.
=73	=73	=73	=73
2C/	1.e	1g	1ee
1c	.	.	.
.	.	2a/	2cc\
2B\	[2f\	2b\	2dd\
=74	=74	=74	=74
2A\	2f\]	2.cc\	1ee
2G\	1e	.	.
.	.	4b\	.
2F\	.	2a/	1ff
4E\	2d\	4g/	.
4D\	.	4f/	.
=75	=75	=75	=75
1C	2e\	2g/	1ee
.	1g	1cc	.
1G	.	.	2r
.	2f\	2b\	2dd\
=76	=76	=76	=76
2r	2e\	1cc	2ee\
1C	2c\	.	2.gg\
.	2e\	2r	.
.	.	.	4ee\
2D\	2d\	2f/	2ff\
=77	=77	=77	=77
2E\	2.c\	2g/	2ee\
2F\	.	1a	4dd\
.	4d\	.	4cc\
1G	2e\	.	1b
.	[2d\	[2g/	.
=78	=78	=78	=78
0D	2d\]	2g/]	1a
.	4c\	4f/	.
.	4B\	4e/	.
.	1A	1f	2r
.	.	.	[2dd\
=79	=79	=79	=79
1r	1G	1g	2dd\]
.	.	.	2.b\
1G	2r	2r	.
.	.	.	4cc\
.	2d\	2g/	2dd\
=80	=80	=80	=80
2G\	2e\	4g/	1g
.	.	4a/	.
2.E\	2.g\	4b\	.
.	.	8a/L	.
.	.	8b/J	.
.	.	2cc\	1g
4F\	4f\	.	.
4G\	4e\	[2b\	.
8F\L	4d\	.	.
8G\J	.	.	.
=81	=81	=81	=81
2A\	1c	2b\]	0r
2c\	.	1a	.
1B	1d	.	.
.	.	2g#i/	.
=82	=82	=82	=82
[0A	1e	0a	1r
.	2c\	.	[1cc
.	2d\	.	.
=83	=83	=83	=83
1A]	1e	0r	2cc\]
.	.	.	4b\
.	.	.	4a/
[1F	[1f	.	[1a
=84	=84	=84	=84
2F\]	2f\]	0r	2a/]
2G\	4e\	.	2b\
.	4d\	.	.
2A\	2c\	.	2cc\
2B\	2d\	.	2f/
=85	=85	=85	=85
0A	2e\	1a	1.cc
.	2f\	.	.
.	1e	2.a/	.
.	.	.	4dd\
.	.	4g/	4cc\
=86	=86	=86	=86
1B	1d	2g/	1.dd
.	.	2f/	.
1G	2r	1g	.
.	[2d\	.	2b\
=87	=87	=87	=87
2r	2d\]	1d	1b
1G	1B	.	.
.	.	2r	2r
[2E\	[2G/	[2e/	[2gg\
=88	=88	=88	=88
2E\]	2G/]	4e/]	2gg\]
.	.	4c/	.
2.C/	2.g\	4e/	1ee
.	.	4f/	.
.	.	1g	.
4D\	4f\	.	.
4E\	2e\	.	2cc\
4F\	.	.	.
=89	=89	=89	=89
[0G	2.d\	2.g/	2.b\
.	4G/	4a/	4cc\
.	2G/	2b\	1dd
.	[2d\	[2b\	.
=90	=90	=90	=90
0G]	4d\]	2b\]	1g
.	4c\	.	.
.	2d\	4a/	.
.	.	4g/	.
.	2e\	2g/	2r
.	2d\	[2b\	[2dd\
=91	=91	=91	=91
1r	1B	4b\]	4dd\]
.	.	4a/	4cc\
.	.	2b\	2dd\
[1G	2r	2cc\	2ee\
.	2d\	2b\	2dd\
=92	=92	=92	=92
1G]	2e\	0g	1b
.	2.d\	.	.
2E\	.	.	1r
.	4c\	.	.
2C/	[2c\	.	.
=93	=93	=93	=93
1G	2c\]	1g	2r
.	2B\	.	2dd\
[1C	[1c	2r	2ee\
.	.	[2g/	[2cc\
=94	=94	=94	=94
1C]	1c]	4g/]	4cc\]
.	.	4f/	4dd\
.	.	4e/	4ee\
.	.	4d/	4ff\
2r	1r	1e	2gg\
2c\	.	.	2ee\
=95	=95	=95	=95
2d\	1r	2.d/	2ff\
4c\	.	.	4ee\
4B\	.	4e/	4dd\
2A\	2r	2f/	2cc\
2B\	[2d\	2d/	[2dd\
=96	=96	=96	=96
1G	2d\]	2r	2dd\]
.	1e	2g/	2b\
2r	.	2a/	2cc\
2G\	2d\	2b\	2dd\
=97	=97	=97	=97
2c\	2c\	2.cc\	2ee\
2A\	2e\	.	2cc\
.	.	4b\	.
2B\	2d\	1g	2dd\
2c\	2c\	.	2ee\
=98	=98	=98	=98
2d\	1a	1f	1ff
2D\	.	.	.
2E\	2g\	2r	2ee\
2C/	2e\	2cc\	[2ee\
=99	=99	=99	=99
1D	1f	2b\	2ee\]
.	.	2a/	2dd\
1r	1e	2cc\	2.ee\
.	.	4b\	.
.	.	4a/	4dd\
=100	=100	=100	=100
2r	0r	2g/	2b\
2.G\	.	2.b\	1dd
4F\	.	4a/	.
2E\	.	[2g/	[2cc\
=101	=101	=101	=101
1D	1r	2g/]	2cc\]
.	.	2f/	2ff\
[1C	[1g	2g/	2ee\
.	.	[2e/	[2cc\
=102	=102	=102	=102
1C]	1g]	2e/]	2cc\]
.	.	4d/	2.ee\
.	.	4c/	.
1E	1g	2B/	.
.	.	.	4ff\
.	.	2c/	4gg\
.	.	.	4ee\
=103	=103	=103	=103
1D	2f\	2d/	2ff\
.	2a\	2f/	2dd\
2r	2g\	2e/	2ee\
[2C/	[2e\	2c/	[2ee\
=104	=104	=104	=104
4C/]	4e\]	2.g/	2ee\]
4D\	4f\	.	.
4E\	2g\	.	4dd\
4F\	.	4a/	4cc\
2.G\	2d\	4b\	4b\
.	.	4cc\	4a/
.	2g\	[2b\	[2dd\
4A\	.	.	.
=105	=105	=105	=105
2B\	4f\	4b\]	2dd\]
.	4e\	4a/	.
2c\	4d\	4g/	2.cc\
.	4c\	4f/	.
1G	1d	1g	.
.	.	.	4b\
.	.	.	2b\
=106	=106	=106	=106
0Cl	0cl	0gl	0ccl
!!LO:LB:i:g=z
!!LO:TX:rj:i:Y=40:t=fine
=107||	=107||	=107||	=107||
*>D	*>D	*>D	*>D
*clefF4	*clefGv2	*clefG2	*clefG2
*k[]	*k[]	*k[]	*k[]
*M2/1	*M2/1	*M2/1	*M2/1
*met(C)	*met(C)	*met(C)	*met(C)
!!section: Benedictus
!!!OMD: Benedictus
0r	0r	1c	0r
.	.	2c/	.
.	.	[2e/	.
=108	=108	=108	=108
1G	0r	2e/]	0r
.	.	4d/	.
.	.	4c/	.
2G\	.	[1g	.
[2B\	.	.	.
=109	=109	=109	=109
2B\]	0r	2g/]	0r
4A\	.	4f/	.
4G\	.	4e/	.
2d\	.	4f/	.
.	.	4e/	.
[2c\	.	4d/	.
.	.	4c/	.
=110	=110	=110	=110
2c\]	0r	1d	0r
2B\	.	.	.
1c	.	2r	.
.	.	[2c/	.
=111	=111	=111	=111
2r	0r	4c/]	0r
.	.	4d/	.
2c\	.	4e/	.
.	.	4c/	.
2B\	.	2d/	.
[2c\	.	2c/	.
=112	=112	=112	=112
2c\]	0r	2e/	0r
4B\	.	2f/	.
4A\	.	.	.
2G\	.	[1g	.
[2C/	.	.	.
=113	=113	=113	=113
4C/]	0r	2g/]	0r
4D\	.	.	.
4E\	.	2e/	.
4C/	.	.	.
2D\	.	2f/	.
2C/	.	[2e/	.
=114	=114	=114	=114
2E\	0r	2e/]	0r
2F\	.	4d/	.
.	.	4c/	.
2G\	.	[1B	.
2E\	.	.	.
=115	=115	=115	=115
1D	0r	1B]	0r
1C	.	2r	.
.	.	[2c/	.
=116	=116	=116	=116
2r	0r	4c/]	0r
.	.	4d/	.
2c\	.	4e/	.
.	.	4c/	.
2B\	.	2d/	.
[2c\	.	2c/	.
=117	=117	=117	=117
2c\]	0r	2e/	1r
4B\	.	2f/	.
4A\	.	.	.
[1G	.	1g	2r
.	.	.	[2g/
=118	=118	=118	=118
1G]	0r	2r	4g/]
.	.	.	4a/
.	.	2g/	4b\
.	.	.	4g/
1r	.	2f/	2a/
.	.	[2g/	2g/
=119	=119	=119	=119
0r	0r	2g/]	2b\
.	.	4f/	2cc\
.	.	4e/	.
.	.	2d/	1dd
.	.	2f/	.
=120	=120	=120	=120
0r	0r	2g/	2r
.	.	2.a/	2.cc\
.	.	4b\	4dd\
.	.	4cc\	4ee\
.	.	4a/	4cc\
=121	=121	=121	=121
0r	0r	2b\	2dd\
.	.	1a	2cc\
.	.	.	2ee\
.	.	4g/	2ff\
.	.	4f/	.
=122	=122	=122	=122
1r	0r	1e	2.gg\
.	.	.	4ff\
2r	.	2f/	2dd\
[2C/	.	2g/	[2ee\
=123	=123	=123	=123
4C/]	0r	1e	4ee\]
4D\	.	.	4ff\
4E\	.	.	4gg\
4C/	.	.	4ee\
2D\	.	2r	2ff\
2C/	.	[2g/	[2ee\
=124	=124	=124	=124
2E\	0r	2g/]	4ee\]
.	.	.	4dd\
2F\	.	4f/	1cc
.	.	4e/	.
1G	.	1d	.
.	.	.	2b\
=125	=125	=125	=125
1C	0r	1c	1cc
2r	.	1g	1r
[2c\	.	.	.
=126	=126	=126	=126
2c\]	0r	2e/	0r
2A\	.	2f/	.
2B\	.	2g/	.
2c\	.	[2a/	.
=127	=127	=127	=127
4d\	0r	2a/]	2r
4c\	.	.	.
4B\	.	1d	1dd
4A\	.	.	.
1G	.	.	.
.	.	2g/	2b\
=128	=128	=128	=128
0r	0r	2e/	2cc\
.	.	2f/	2dd\
.	.	2g/	4ee\
.	.	.	4dd\
.	.	2a/	4cc\
.	.	.	4b\
=129	=129	=129	=129
2r	0r	2a/	1a
1F	.	2.d/	.
.	.	.	1r
.	.	4e/	.
2D\	.	4f/	.
.	.	4e/	.
=130	=130	=130	=130
2E\	0r	4d/	2r
.	.	4c/	.
2F\	.	1c	1ff
1G	.	.	.
.	.	2B/	2dd\
=131	=131	=131	=131
0C	0r	1c	2ee\
.	.	.	2ff\
.	.	2r	1gg
.	.	2g/	.
=132	=132	=132	=132
0r	0r	2a/	1cc
.	.	2cc\	.
.	.	2b\	2r
.	.	[2a/	2ff\
=133	=133	=133	=133
0r	0r	4a/]	2ee\
.	.	4g/	.
.	.	4f/	2.dd\
.	.	4e/	.
.	.	2d/	.
.	.	.	4cc\
.	.	2f/	2a/
=134	=134	=134	=134
0r	0r	2g/	2b\
.	.	2b\	1g
.	.	1a	.
.	.	.	2f#i/
=135	=135	=135	=135
2r	0r	2g/	2g/
1c	.	2cc\	2a/
.	.	4a/	2.cc\
.	.	4b\	.
2A\	.	4cc\	.
.	.	8b\L	4b\
.	.	8cc\J	.
=136	=136	=136	=136
2B\	0r	2dd\	4a/
.	.	.	4g/
2c\	.	2b\	1g
1d	.	1a	.
.	.	.	2f#i/
=137	=137	=137	=137
2G\	0r	2r	1g
2.c\	.	2.g/	.
.	.	.	1r
4B\	.	4f/	.
2B\	.	4e/	.
.	.	4d/	.
=138	=138	=138	=138
4c\	0r	4e/	1r
4B\	.	4c/	.
4A\	.	1g	.
4G\	.	.	.
1A	.	.	2r
.	.	2f#i/	[2cc\
=139	=139	=139	=139
1G	0r	[0g	2cc\]
.	.	.	2b\
2r	.	.	1ee
[2c\	.	.	.
=140	=140	=140	=140
2c\]	0r	0g]	1dd
2B\	.	.	.
1c	.	.	2r
.	.	.	[2g/
=141	=141	=141	=141
1G	0r	2r	4g/]
.	.	.	4a/
.	.	1g	4b\
.	.	.	4cc\
2r	.	.	2dd\
[2c\	.	2e/	[2ee\
=142	=142	=142	=142
2c\]	0r	1f	2ee\]
2B\	.	.	2dd\
1e	.	2e/	1gg
.	.	2g/	.
=143	=143	=143	=143
1d	0r	1a	1ff
2r	.	2g/	4ee\
.	.	.	4dd\
2G\	.	2e/	[2ee\
=144	=144	=144	=144
2A\	0r	1f	2ee\]
2B\	.	.	2dd\
2c\	.	1e	2ee\
4B\	.	.	4dd\
4A\	.	.	4cc\
=145	=145	=145	=145
2G\	0r	2r	2b\
2A\	.	2a/	2.ee\
1E	.	2g/	.
.	.	.	4dd\
.	.	2e/	2ee\
=146	=146	=146	=146
0r	0r	2f/	2dd\
.	.	2g/	2b\
.	.	2c/	2cc\
.	.	4f/	2dd\
.	.	4e/	.
=147	=147	=147	=147
2r	0r	4d/	2g/
.	.	4c/	.
2E\	.	1c	2.gg\
2F\	.	.	.
.	.	.	4ff\
2G\	.	2B/	2dd\
=148	=148	=148	=148
2C/	0r	2c/	2ee\
1F	.	1a	2cc\
.	.	.	2dd\
2E\	.	2g/	[2ee\
=149	=149	=149	=149
1A	0r	4f/	4ee\]
.	.	4e/	4dd\
.	.	4d/	1cc
.	.	4c/	.
1G	.	1d	.
.	.	.	2b\
=150	=150	=150	=150
0Cl	0r	0cl	0ccl
!!LO:TX:i:Y=40:rj:t=Osanna ut supra
==	==	==	==
*-	*-	*-	*-
!!!RDF**kern: l=long note in original notation
!!!RDF**kern: i=editorial accidental
!!!RDF**kern: V=start of tuplet marker
!!!RDF**kern: Z=end of tuplet marker
!!!ENC:	Chris Gage 05-14-2013
!!!END:	2013/07/25/
!!!EED:	Jesse Rodin
!!!EEV:	2013/08/05/
!!!ONB:	Translated from MusicXML and edited on 2013/08/05/ by Craig Sapp
!!muse2ps: T^@{OPR}^u^@{ONM}{. }@{OTL}^C^@{COM}^i2I150v85,85,85,150Q8c120
